static/assets/images/exchanges/panko.svg

<svg width="250" height="256" viewBox="0 0 250 256" fill="none" xmlns="http://www.w3.org/2000/svg">
<path d="M181.185 54.3258C178.874 52.396 156.043 32.448 155.219 5.46983C155.219 5.46983 155.219 -1.85562 150.404 0.448353C145.697 2.67356 142.861 7.78365 138.988 20.7903C135.115 33.7969 148.189 39.9703 156.053 47.5715C156.053 47.5715 139.609 45.937 135.425 46.321C131.231 46.8133 127.989 47.9653 121.292 59.0421C121.292 59.0421 112.914 72.1472 118.885 78.5077C119.302 79 120.029 79.1871 120.661 79.1871C121.859 79.1759 123.012 78.7628 123.902 78.0252C123.902 78.0252 150.714 55.3794 179.195 58.7566C201.599 81.304 188.514 101.154 171.974 110.891C167.908 113.274 164.11 115.42 160.975 118.118C152.801 125.148 147.997 133.34 146.103 136.816C141.716 144.516 140.24 148.09 132.601 148.277C124.951 148.474 122.544 139.514 121.495 136.816C120.554 134.118 116.06 110.596 114.166 105.594C112.176 100.573 110.186 97.8847 104.323 100.189C98.46 102.404 91.0348 109.149 91.0348 109.149C68.4062 103.27 53.6521 107.317 53.6521 107.317L52.2505 104.6C50.6029 101.941 45.7883 89.7814 37.9351 97.3924C30.082 105.013 23.7053 127.748 23.7053 127.748C12.9099 175.255 37.9351 207.826 37.9351 207.826C80.2394 268.438 157.412 257.164 174.584 250.803C190.087 245.122 226.421 227.202 242.021 188.261C243.7 184.028 245.166 179.597 246.311 174.772C246.739 172.941 247.156 171.11 247.37 169.278C262.755 95.2755 199.406 62.2322 181.078 54.3258H181.185Z" fill="#E81899"/>
<path d="M133.581 145.043L106.708 152.463C106.178 152.625 105.738 152.971 105.48 153.427C105.223 153.883 105.168 154.413 105.328 154.906C105.488 155.398 105.849 155.814 106.336 156.065C106.824 156.316 107.398 156.383 107.937 156.251L134.81 148.832C135.34 148.669 135.78 148.324 136.038 147.868C136.296 147.412 136.35 146.881 136.191 146.389C136.031 145.896 135.669 145.48 135.182 145.229C134.695 144.978 134.12 144.911 133.581 145.043ZM136.392 167.696L108.654 163.828C108.091 163.75 107.517 163.881 107.059 164.192C106.601 164.503 106.296 164.968 106.211 165.486C106.126 166.005 106.268 166.532 106.606 166.954C106.944 167.376 107.45 167.657 108.012 167.735L135.751 171.602C136.313 171.681 136.887 171.55 137.345 171.239C137.803 170.928 138.108 170.462 138.193 169.944C138.278 169.426 138.136 168.898 137.798 168.477C137.461 168.055 136.955 167.774 136.392 167.696ZM87.8204 136.098C85.8784 136.101 84.0165 136.811 82.6423 138.075C81.268 139.338 80.4933 141.051 80.4877 142.839C80.4877 146.499 83.8334 149.579 87.8204 149.579C89.7555 149.559 91.605 148.842 92.9734 147.582C94.3418 146.323 95.1203 144.62 95.1425 142.839C95.1203 141.057 94.3418 139.355 92.9734 138.095C91.605 136.835 89.7555 136.118 87.8204 136.098ZM57.7839 142.829C57.7754 141.044 57.0009 139.335 55.6293 138.075C54.2576 136.814 52.4001 136.103 50.4618 136.098C48.5267 136.118 46.6772 136.835 45.3088 138.095C43.9405 139.355 43.1619 141.057 43.1397 142.839C43.1397 146.499 46.4854 149.579 50.4618 149.579C52.3987 149.561 54.2509 148.846 55.6216 147.586C56.9922 146.326 57.7723 144.622 57.7945 142.839L57.7839 142.829ZM91.893 156.32C90.6424 155.651 89.0711 156.123 88.3335 157.284C85.6185 161.713 82.7859 163.74 79.6539 162.972C75.4744 162.106 71.915 156.999 71.915 155.553V155.395C71.915 154.756 71.639 154.142 71.1479 153.69C70.6568 153.238 69.9907 152.984 69.2961 152.984C68.6015 152.984 67.9354 153.238 67.4443 153.69C66.9532 154.142 66.6773 154.756 66.6773 155.395V155.553C66.5704 156.901 63.1284 162.096 58.9383 162.962C55.9132 163.74 52.9844 161.713 50.2587 157.284C50.1031 156.999 49.8855 156.746 49.6194 156.541C49.3533 156.336 49.0443 156.184 48.7115 156.093C48.3788 156.003 48.0295 155.977 47.6852 156.016C47.3408 156.055 47.0089 156.158 46.7099 156.32C45.4485 156.989 44.9248 158.436 45.6623 159.587C49.7349 166.338 54.3419 167.971 57.7945 167.971C58.8421 167.971 59.7827 167.774 60.6165 167.587C64.176 166.721 67.2117 164.124 69.3068 161.329C71.3912 164.025 74.4376 166.623 77.9864 167.587C78.7133 167.784 79.7608 167.971 80.8083 167.971C84.1541 167.971 88.7611 166.338 92.8444 159.587H92.9512C93.2594 159.021 93.3215 158.368 93.1249 157.761C92.9282 157.154 92.4877 156.639 91.893 156.32Z" fill="white"/>
<path d="M30.0048 165.701L1.88449 169.746C1.59726 169.782 1.32074 169.87 1.07113 170.005C0.821518 170.14 0.603826 170.319 0.430797 170.531C0.257769 170.744 0.132881 170.986 0.0634442 171.244C-0.00599244 171.501 -0.0185823 171.769 0.0264116 172.03C0.0714055 172.292 0.173079 172.543 0.32548 172.769C0.477881 172.994 0.677948 173.19 0.913968 173.344C1.14999 173.498 1.41722 173.607 1.70001 173.665C1.98281 173.724 2.27549 173.73 2.56093 173.684L30.692 169.638C30.9893 169.613 31.2778 169.533 31.5396 169.402C31.8015 169.27 32.0311 169.092 32.2142 168.876C32.3973 168.66 32.53 168.413 32.6041 168.148C32.6782 167.884 32.692 167.608 32.6449 167.339C32.5977 167.069 32.4905 166.811 32.3299 166.581C32.1692 166.351 31.9586 166.153 31.7111 166.001C31.4636 165.848 31.1844 165.744 30.8909 165.694C30.5974 165.644 30.2958 165.64 30.0048 165.701ZM31.6369 154.223L4.33254 146.888C3.77725 146.74 3.18022 146.799 2.6728 147.053C2.16537 147.307 1.78912 147.735 1.6268 148.243C1.46449 148.751 1.52941 149.297 1.80728 149.761C2.08516 150.225 2.55323 150.569 3.10852 150.718L30.4128 158.052C30.9681 158.201 31.5652 158.141 32.0726 157.887C32.58 157.633 32.9563 157.205 33.1186 156.697C33.2809 156.189 33.216 155.643 32.9381 155.179C32.6602 154.715 32.1922 154.371 31.6369 154.223Z" fill="#E81899"/>
</svg>

<svg xmlns="http://www.w3.org/2000/svg" fill="none" viewBox="0 0 250 256"><path fill="#E81899" d="M181.185 54.326c-2.311-1.93-25.142-21.878-25.966-48.856 0 0 0-7.326-4.815-5.022-4.707 2.226-7.543 7.336-11.416 20.342-3.873 13.007 9.201 19.18 17.065 26.782 0 0-16.444-1.635-20.628-1.251-4.194.492-7.436 1.644-14.133 12.721 0 0-8.378 13.105-2.407 19.466.417.492 1.144.68 1.776.68a5.16 5.16 0 0 0 3.241-1.163s26.812-22.646 55.293-19.268c22.404 22.547 9.319 42.397-7.221 52.134-4.066 2.383-7.864 4.529-10.999 7.227-8.174 7.03-12.978 15.222-14.872 18.698-4.387 7.7-5.863 11.274-13.502 11.461-7.65.197-10.057-8.763-11.106-11.461-.941-2.698-5.435-26.22-7.329-31.222-1.99-5.021-3.98-7.71-9.843-5.405-5.863 2.215-13.288 8.96-13.288 8.96-22.629-5.879-37.383-1.832-37.383-1.832l-1.401-2.717c-1.648-2.659-6.463-14.819-14.316-7.208-7.853 7.621-14.23 30.356-14.23 30.356-10.795 47.507 14.23 80.078 14.23 80.078 42.304 60.612 119.477 49.338 136.649 42.977 15.503-5.681 51.837-23.601 67.437-62.542 1.679-4.233 3.145-8.664 4.29-13.489.428-1.831.845-3.662 1.059-5.494 15.385-74.002-47.964-107.046-66.292-114.952z"/><path fill="#fff" d="m133.581 145.043-26.873 7.42a2.1 2.1 0 0 0-1.228.964 1.84 1.84 0 0 0-.152 1.479c.16.492.521.908 1.008 1.159a2.3 2.3 0 0 0 1.601.186l26.873-7.419c.53-.163.97-.508 1.228-.964a1.84 1.84 0 0 0 .153-1.479 2.02 2.02 0 0 0-1.009-1.16 2.3 2.3 0 0 0-1.601-.186m2.811 22.653-27.738-3.868a2.3 2.3 0 0 0-1.595.364 1.96 1.96 0 0 0-.848 1.294 1.86 1.86 0 0 0 .395 1.468c.338.422.844.703 1.406.781l27.739 3.867a2.28 2.28 0 0 0 1.594-.363c.458-.311.763-.777.848-1.295a1.86 1.86 0 0 0-.395-1.467 2.18 2.18 0 0 0-1.406-.781M87.82 136.098c-1.942.003-3.803.713-5.178 1.977-1.374 1.263-2.149 2.976-2.154 4.764 0 3.66 3.345 6.74 7.332 6.74 1.936-.02 3.785-.737 5.153-1.997 1.369-1.259 2.147-2.962 2.17-4.743-.023-1.782-.801-3.484-2.17-4.744s-3.218-1.977-5.153-1.997m-30.036 6.731c-.009-1.785-.783-3.494-2.155-4.754-1.371-1.261-3.229-1.972-5.167-1.977-1.935.02-3.785.737-5.153 1.997s-2.147 2.962-2.17 4.744c0 3.66 3.346 6.74 7.323 6.74 1.937-.018 3.789-.733 5.16-1.993s2.15-2.964 2.172-4.747zm34.109 13.491c-1.25-.669-2.822-.197-3.56.964-2.715 4.429-5.547 6.456-8.68 5.688-4.179-.866-7.738-5.973-7.738-7.419v-.158a2.32 2.32 0 0 0-.767-1.705 2.74 2.74 0 0 0-1.852-.706 2.74 2.74 0 0 0-1.852.706 2.32 2.32 0 0 0-.767 1.705v.158c-.107 1.348-3.549 6.543-7.739 7.409-3.025.778-5.954-1.249-8.68-5.678a2.4 2.4 0 0 0-.639-.743 2.6 2.6 0 0 0-.907-.448 2.75 2.75 0 0 0-2.002.227c-1.261.669-1.785 2.116-1.048 3.267 4.073 6.751 8.68 8.384 12.133 8.384 1.047 0 1.988-.197 2.822-.384 3.559-.866 6.595-3.463 8.69-6.258 2.084 2.696 5.13 5.294 8.68 6.258.726.197 1.774.384 2.821.384 3.346 0 7.953-1.633 12.036-8.384h.107a2.3 2.3 0 0 0 .174-1.826 2.54 2.54 0 0 0-1.232-1.441"/><path fill="#E81899" d="m30.005 165.701-28.12 4.045a2.3 2.3 0 0 0-.814.259 2.1 2.1 0 0 0-.64.526 1.9 1.9 0 0 0-.368.713 1.8 1.8 0 0 0-.037.786c.045.262.147.513.3.739.152.225.352.421.588.575s.503.263.786.321c.283.059.575.065.86.019l28.132-4.046c.297-.025.586-.105.848-.236.262-.132.491-.31.674-.526a1.9 1.9 0 0 0 .39-.728c.074-.264.088-.54.04-.809a1.9 1.9 0 0 0-.314-.758 2.1 2.1 0 0 0-.619-.58 2.3 2.3 0 0 0-.82-.307 2.4 2.4 0 0 0-.886.007m1.632-11.478-27.304-7.335a2.37 2.37 0 0 0-1.66.165 2.04 2.04 0 0 0-1.046 1.19 1.84 1.84 0 0 0 .18 1.518c.278.464.746.808 1.302.957l27.304 7.334a2.36 2.36 0 0 0 1.66-.165 2.04 2.04 0 0 0 1.046-1.19 1.84 1.84 0 0 0-.18-1.518 2.15 2.15 0 0 0-1.302-.956"/></svg>
